icon-themes/sifr_svg/cmd/32/copy.svg

<svg viewBox="0 0 32 32" xmlns="http://www.w3.org/2000/svg"><path d="m3 3v17h8v-9h9v-8zm11 11v15h8l7-7v-8z" fill="#555753"/></svg>

<svg xmlns="http://www.w3.org/2000/svg" viewBox="0 0 32 32">
  <path
     style="fill:#555753"
     d="M 3 3 L 3 20 L 11 20 L 11 11 L 20 11 L 20 3 L 3 3 z M 14 14 L 14 29 L 22 29 L 29 22 L 29 14 L 14 14 z "
     />
</svg>
